static/images/networks/mantle.svg

<svg xmlns="http://www.w3.org/2000/svg" fill="none" viewBox="0 0 512 512"><path fill="#000" d="M256 512c141.385 0 256-114.615 256-256S397.385 0 256 0 0 114.615 0 256s114.615 256 256 256Z"/><path fill="#fff" d="m145.743 200.027-56.83-28.935a186.747 186.747 0 0 0-11.243 27.217l60.681 19.622a122.84 122.84 0 0 1 7.392-17.904Zm48.274-50.995 31.477 54.236a60.473 60.473 0 0 1 14.635-6.092l-16.29-60.56a121.557 121.557 0 0 1 12.595-2.704l-10.011-62.99a187.301 187.301 0 0 0-28.602 6.89l19.466 59.658a124.295 124.295 0 0 0-18.028 7.501l-28.612-55.85c-8.7 4.46-17.116 9.64-25.025 15.415l37.597 51.513c3.463-2.525 7.087-4.859 10.798-7.017Zm168.911 44.936-54.215 31.506a60.494 60.494 0 0 1 6.101 14.627l60.553-16.321a122.88 122.88 0 0 1 2.709 12.587l62.978-10.03a187.26 187.26 0 0 0-6.907-28.606l-59.648 19.503a124.45 124.45 0 0 0-7.51-18.024l55.828-28.65a188.202 188.202 0 0 0-15.422-25.011l-51.498 37.622a123.491 123.491 0 0 1 7.031 10.797ZM340.82 88.866a187.565 187.565 0 0 0-27.217-11.23l-19.589 60.694a123.355 123.355 0 0 1 17.909 7.386l28.897-56.85Zm-22.645 59.054-31.837 55.256a61.267 61.267 0 0 1 12.643 9.678l89.293-89.599a188.925 188.925 0 0 0-22.364-19.053l-36.828 50.792a125.544 125.544 0 0 0-10.907-7.074Zm-170.218 45.848 55.24 31.872a61.432 61.432 0 0 1 9.693-12.649l-89.559-89.328a188.83 188.83 0 0 0-19.062 22.355l50.771 36.853a124.72 124.72 0 0 0-7.083 10.897Zm127.374-60.928 9.635-62.002a189.141 189.141 0 0 0-28.967-2.23h-.147v126.5h.147c5.333 0 10.608.683 15.684 2.031l16.357-61.642a124.369 124.369 0 0 0-12.709-2.657ZM197.14 240.283l-61.631-16.401a123.036 123.036 0 0 0-2.666 12.71l-61.991-9.665a189.336 189.336 0 0 0-2.244 29.069h126.496a61.19 61.19 0 0 1 2.036-15.713Zm169.117 71.7 56.829 28.935a186.677 186.677 0 0 0 11.243-27.217l-60.681-19.623a122.69 122.69 0 0 1-7.391 17.905Zm-48.277 50.982-31.477-54.236a60.497 60.497 0 0 1-14.635 6.092l16.291 60.559a121.692 121.692 0 0 1-12.595 2.705l10.005 62.984a187.199 187.199 0 0 0 28.602-6.889l-19.465-59.659a123.993 123.993 0 0 0 18.028-7.5l28.611 55.849c8.7-4.459 17.117-9.64 25.025-15.414l-37.597-51.513a125.347 125.347 0 0 1-10.793 7.022Zm-168.906-44.92 54.221-31.506a60.513 60.513 0 0 1-6.102-14.627l-60.553 16.32a123.13 123.13 0 0 1-2.709-12.586l-62.983 10.029a187.1 187.1 0 0 0 6.908 28.608l59.647-19.504a124.404 124.404 0 0 0 7.51 18.024l-55.828 28.65a188.104 188.104 0 0 0 15.423 25.011l51.497-37.621a123.89 123.89 0 0 1-7.031-10.798Zm22.106 105.094a187.553 187.553 0 0 0 27.217 11.23l19.589-60.693a123.372 123.372 0 0 1-17.91-7.387l-28.896 56.85Zm22.644-59.046 31.838-55.256a61.269 61.269 0 0 1-12.644-9.677l-89.293 89.598a189.188 189.188 0 0 0 22.364 19.054l36.828-50.792a125.768 125.768 0 0 0 10.907 7.073Zm170.217-45.849L308.8 286.373a61.424 61.424 0 0 1-9.692 12.647l89.554 89.334a188.923 188.923 0 0 0 19.062-22.355l-50.772-36.852a125.18 125.18 0 0 0 7.089-10.903Zm-123.725-3.382-16.357 61.642a124.638 124.638 0 0 0 12.709 2.657l-9.63 62.001a189.04 189.04 0 0 0 28.967 2.23h.147v-126.5h-.147a61.2 61.2 0 0 1-15.689-2.03Zm76.58-58.853c0 5.342-.688 10.627-2.04 15.713l61.63 16.4a122.549 122.549 0 0 0 2.666-12.709l61.997 9.669a189.414 189.414 0 0 0 2.243-29.069l-126.496-.004Z"/></svg>

<svg width="512" height="512" viewBox="0 0 512 512" fill="none" xmlns="http://www.w3.org/2000/svg">
<path d="M256 512C397.385 512 512 397.385 512 256C512 114.615 397.385 0 256 0C114.615 0 0 114.615 0 256C0 397.385 114.615 512 256 512Z" fill="black"/>
<path d="M145.743 200.027L88.9133 171.092C84.468 179.826 80.6823 188.983 77.6698 198.309L138.351 217.931C140.334 211.797 142.816 205.773 145.743 200.027Z" fill="white"/>
<path d="M194.017 149.032L225.494 203.268C230.091 200.602 235.011 198.552 240.129 197.176L223.839 136.616C227.984 135.501 232.197 134.581 236.434 133.912L226.423 70.9229C216.741 72.4599 207.12 74.7799 197.821 77.8115L217.287 137.47C211.095 139.491 205.066 142.001 199.259 144.971L170.647 89.1217C161.947 93.5812 153.531 98.7619 145.622 104.536L183.219 156.049C186.682 153.524 190.306 151.19 194.017 149.032Z" fill="white"/>
<path d="M362.928 193.968L308.713 225.474C311.384 230.066 313.433 234.991 314.814 240.101L375.367 223.78C376.482 227.927 377.403 232.135 378.076 236.367L441.054 226.337C439.512 216.66 437.187 207.034 434.147 197.731L374.499 217.234C372.473 211.043 369.963 205.017 366.989 199.21L422.817 170.56C418.358 161.869 413.168 153.453 407.395 145.549L355.897 183.171C358.426 186.634 360.77 190.253 362.928 193.968Z" fill="white"/>
<path d="M340.82 88.8664C332.076 84.4259 322.92 80.6446 313.603 77.6368L294.014 138.33C300.143 140.308 306.169 142.794 311.923 145.716L340.82 88.8664Z" fill="white"/>
<path d="M318.175 147.92L286.338 203.176C290.949 205.833 295.2 209.088 298.981 212.854L388.274 123.255C381.348 116.352 373.824 109.943 365.91 104.202L329.082 154.994C325.572 152.451 321.932 150.088 318.175 147.92Z" fill="white"/>
<path d="M147.957 193.768L203.197 225.64C205.854 221.033 209.118 216.778 212.89 212.991L123.331 123.663C116.423 130.59 110.009 138.109 104.269 146.018L155.04 182.871C152.497 186.376 150.125 190.011 147.957 193.768Z" fill="white"/>
<path d="M275.331 132.84L284.966 70.8378C275.445 69.3576 265.701 68.608 255.999 68.608H255.852V195.108H255.999C261.332 195.108 266.607 195.791 271.683 197.139L288.04 135.497C283.856 134.387 279.615 133.509 275.331 132.84Z" fill="white"/>
<path d="M197.14 240.283L135.509 223.882C134.394 228.066 133.512 232.307 132.843 236.592L70.852 226.927C69.3623 236.483 68.608 246.265 68.608 255.996H195.104C195.104 250.654 195.789 245.364 197.14 240.283Z" fill="white"/>
<path d="M366.257 311.983L423.086 340.918C427.531 332.184 431.317 323.028 434.329 313.701L373.648 294.078C371.665 300.212 369.184 306.238 366.257 311.983Z" fill="white"/>
<path d="M317.98 362.965L286.503 308.729C281.906 311.395 276.987 313.445 271.868 314.821L288.159 375.38C284.008 376.496 279.8 377.416 275.564 378.085L285.569 441.069C295.252 439.532 304.873 437.212 314.171 434.18L294.706 374.521C300.902 372.501 306.927 369.991 312.734 367.021L341.345 422.87C350.045 418.411 358.462 413.23 366.37 407.456L328.773 355.943C325.31 358.467 321.691 360.806 317.98 362.965Z" fill="white"/>
<path d="M149.074 318.045L203.295 286.539C200.624 281.946 198.574 277.022 197.193 271.912L136.64 288.232C135.525 284.086 134.605 279.877 133.931 275.646L70.9484 285.675C72.4903 295.354 74.8149 304.98 77.8559 314.283L137.503 294.779C139.529 300.971 142.039 306.996 145.013 312.803L89.1848 341.453C93.6442 350.144 98.8342 358.561 104.608 366.464L156.105 328.843C153.576 325.38 151.233 321.759 149.074 318.045Z" fill="white"/>
<path d="M171.18 423.139C179.923 427.58 189.079 431.36 198.397 434.369L217.986 373.676C211.856 371.698 205.831 369.211 200.076 366.289L171.18 423.139Z" fill="white"/>
<path d="M193.824 364.093L225.662 308.837C221.051 306.18 216.799 302.926 213.018 299.16L123.725 388.758C130.652 395.661 138.176 402.07 146.089 407.812L182.917 357.02C186.428 359.562 190.066 361.925 193.824 364.093Z" fill="white"/>
<path d="M364.041 318.244L308.8 286.373C306.143 290.979 302.879 295.235 299.108 299.02L388.662 388.354C395.57 381.427 401.983 373.908 407.724 365.999L356.952 329.147C359.496 325.64 361.872 322.002 364.041 318.244Z" fill="white"/>
<path d="M240.316 314.862L223.959 376.504C228.143 377.613 232.384 378.492 236.668 379.161L227.038 441.162C236.559 442.643 246.303 443.392 256.005 443.392H256.152V316.892H256.005C250.672 316.892 245.392 316.209 240.316 314.862Z" fill="white"/>
<path d="M316.896 256.009C316.896 261.351 316.208 266.636 314.856 271.722L376.486 288.122C377.602 283.938 378.484 279.697 379.152 275.413L441.149 285.082C442.638 275.527 443.392 265.744 443.392 256.013L316.896 256.009Z" fill="white"/>
</svg>
